X:136
T:Gwahoddiad
M:3/2
L:1/4
Q:120
C:G. Hartshough (?)
R:Hymn
N:Although well established as a traditional Welsh hymn, it was written
N:by an American
K:D
D F | A3 F E D | D4 D2 | E3 G B A | F4 A2
| d3 c B A | B A F2 D2 | E3 D F E | D6 ||
d3 c B A | B6 | A3 F E D | E6 | A3
B A F | D E F2 D2 | E3 D F E | D4 ||
